www/assets/images/test_icons/flags/SZ.svg

<svg fill="none" height="15" viewBox="0 0 21 15" width="21" xmlns="http://www.w3.org/2000/svg" xmlns:xlink="http://www.w3.org/1999/xlink"><mask id="a" height="15" maskUnits="userSpaceOnUse" width="21" x="0" y="0"><path d="m19 0h-17c-1.10457 0-2 .89543-2 2v11c0 1.1046.89543 2 2 2h17c1.1046 0 2-.8954 2-2v-11c0-1.10457-.8954-2-2-2z" fill="#fff"/></mask><g mask="url(#a)"><path d="m19 0h-17c-1.10457 0-2 .89543-2 2v11c0 1.1046.89543 2 2 2h17c1.1046 0 2-.8954 2-2v-11c0-1.10457-.8954-2-2-2z" fill="#ffde00"/><g clip-rule="evenodd" fill-rule="evenodd"><path d="m0 12h21v3h-21zm0-12h21v3h-21z" fill="#4769c1"/><path d="m0 4h21v7h-21z" fill="#bc0a33"/><path d="m4 8h13v1h-13zm2-2h10v1h-10z" fill="#e1c400"/><path d="m16 6h2v1h-2z" fill="#9d9191"/><path d="m10.5 10c2.485 0 4.5-2.5 4.5-2.5s-2.015-2.5-4.5-2.5-4.5 2.5-4.5 2.5 2.015 2.5 4.5 2.5z" fill="#fff"/><path d="m10.5 10c.5 0 1.5-2.5 1.5-2.5s-1-2.5-1.5-2.5c-2.485 0-4.5 2.5-4.5 2.5s2.015 2.5 4.5 2.5z" fill="#000"/><path d="m8 7h1v1h-1zm2 0h1v1h-1z" fill="#878787"/><path d="m13 7h1v1h-1z" fill="#5b5b5b" stroke="#979797"/></g><path d="m19 .5h-17c-.82843 0-1.5.67157-1.5 1.5v11c0 .8284.67157 1.5 1.5 1.5h17c.8284 0 1.5-.6716 1.5-1.5v-11c0-.82843-.6716-1.5-1.5-1.5z" stroke="#000" stroke-opacity=".1"/></g></svg>

<svg width="21" height="15" viewBox="0 0 21 15" fill="none" xmlns="http://www.w3.org/2000/svg">
<mask id="mask0_3_33" style="mask-type:alpha" maskUnits="userSpaceOnUse" x="0" y="0" width="21" height="15">
<path d="M19 0H2C0.89543 0 0 0.89543 0 2V13C0 14.1046 0.89543 15 2 15H19C20.1046 15 21 14.1046 21 13V2C21 0.89543 20.1046 0 19 0Z" fill="white"/>
</mask>
<g mask="url(#mask0_3_33)">
<path d="M19 0H2C0.89543 0 0 0.89543 0 2V13C0 14.1046 0.89543 15 2 15H19C20.1046 15 21 14.1046 21 13V2C21 0.89543 20.1046 0 19 0Z" fill="#FFDE00"/>
<path fill-rule="evenodd" clip-rule="evenodd" d="M0 12H21V15H0V12ZM0 0H21V3H0V0Z" fill="#4769C1"/>
<path fill-rule="evenodd" clip-rule="evenodd" d="M0 4H21V11H0V4Z" fill="#BC0A33"/>
<path fill-rule="evenodd" clip-rule="evenodd" d="M4 8H17V9H4V8ZM6 6H16V7H6V6Z" fill="#E1C400"/>
<path fill-rule="evenodd" clip-rule="evenodd" d="M16 6H18V7H16V6Z" fill="#9D9191"/>
<path fill-rule="evenodd" clip-rule="evenodd" d="M10.5 10C12.985 10 15 7.5 15 7.5C15 7.5 12.985 5 10.5 5C8.015 5 6 7.5 6 7.5C6 7.5 8.015 10 10.5 10Z" fill="white"/>
<path fill-rule="evenodd" clip-rule="evenodd" d="M10.5 10C11 10 12 7.5 12 7.5C12 7.5 11 5 10.5 5C8.015 5 6 7.5 6 7.5C6 7.5 8.015 10 10.5 10Z" fill="black"/>
<path fill-rule="evenodd" clip-rule="evenodd" d="M8 7H9V8H8V7ZM10 7H11V8H10V7Z" fill="#878787"/>
<path fill-rule="evenodd" clip-rule="evenodd" d="M13 7H14V8H13V7Z" fill="#5B5B5B" stroke="#979797"/>
<path d="M19 0.5H2C1.17157 0.5 0.5 1.17157 0.5 2V13C0.5 13.8284 1.17157 14.5 2 14.5H19C19.8284 14.5 20.5 13.8284 20.5 13V2C20.5 1.17157 19.8284 0.5 19 0.5Z" stroke="black" stroke-opacity="0.1"/>
</g>
</svg>
